X:66
T:Amelia's Waltz
M:3/4
L:1/8
C:Charlie Gore
Z:Transcribed into ABC format by Larry Warren with permission
Z:Posted by Larry Warren 11/98
K:D
AG|F2A2d2|f2a2f2|g2e2d2|c2A2 Bc|d4 AF|G2 A2B2|A2F2D2|E4 DE|
F2A2F2|G2B2G2|A2c2e2|d2A2dc|B2G2ed|c2A2fe|d4ec|d2 AGFE|
F4 Ad|f4af|g2e2 ed|c2 cB A2|d2 fedc|B2 g2f2|e2B2d2|c4AG|
F2 FGAF|G2 GABG|A4 Bc|d2A2dc|B4ed|c4fe|d2 dece|d3 def|
g3 eag|f2d2ef|e2A2ce|f2d2dc|B3c dB|A2d2f2|f2e2d2|c4AG|
F2 FGAF|d2 defd|gf e2d2|c2A2Bc|d2 AG F2|B2 GF E2|A2e2c2|d4
